src/assets/calendar-small.svg

<svg fill="none" height="15" viewBox="0 0 15 15" width="15" xmlns="http://www.w3.org/2000/svg" xmlns:xlink="http://www.w3.org/1999/xlink"><mask id="a" fill="#fff"><path clip-rule="evenodd" d="m9.80907 8.56281h.00561z" fill="#fff" fill-rule="evenodd"/></mask><mask id="b" fill="#fff"><path clip-rule="evenodd" d="m9.80907 10.4378h.00561z" fill="#fff" fill-rule="evenodd"/></mask><mask id="c" fill="#fff"><path clip-rule="evenodd" d="m7.49754 8.56281h.00562z" fill="#fff" fill-rule="evenodd"/></mask><mask id="d" fill="#fff"><path clip-rule="evenodd" d="m7.49805 10.4378h.00561z" fill="#fff" fill-rule="evenodd"/></mask><mask id="e" fill="#fff"><path clip-rule="evenodd" d="m5.18407 8.56281h.00561z" fill="#fff" fill-rule="evenodd"/></mask><mask id="f" fill="#fff"><path clip-rule="evenodd" d="m5.18457 10.4378h.00561z" fill="#fff" fill-rule="evenodd"/></mask><path d="m5 1.25v1.875" stroke="#fff" stroke-linecap="round" stroke-linejoin="round" stroke-miterlimit="10"/><path d="m9.99902 1.25v1.875" stroke="#fff" stroke-linecap="round" stroke-linejoin="round" stroke-miterlimit="10"/><path d="m2.1875 5.68115h10.625" stroke="#fff" stroke-linecap="round" stroke-linejoin="round" stroke-miterlimit="10"/><path d="m12.626 5.3125v5.3125c0 .8609-.2153 1.5018-.6086 1.9254-.3871.4168-1.018.6996-2.0164.6996h-5.00002c-.99845 0-1.62935-.2828-2.01642-.6996-.3933-.4236-.60858-1.0645-.60858-1.9254v-5.3125c0-.86085.21528-1.50185.60858-1.9254.38707-.41684 1.01797-.6996 2.01642-.6996h5.00002c.9984 0 1.6293.28276 2.0164.6996.3933.42355.6086 1.06455.6086 1.9254z" stroke="#fff" stroke-linecap="round" stroke-linejoin="round" stroke-miterlimit="10"/><g fill="#fff"><path d="m9.80907 7.56281c-.55229 0-1 .44771-1 1 0 .55228.44771 1 1 1zm.00561 2c.55232 0 1.00002-.44772 1.00002-1 0-.55229-.4477-1-1.00002-1zm-.00561 0h.00561v-2h-.00561z" mask="url(#a)"/><path d="m9.80907 9.43781c-.55229 0-1 .44771-1 .99999 0 .5523.44771 1 1 1zm.00561 1.99999c.55232 0 1.00002-.4477 1.00002-1 0-.55228-.4477-.99999-1.00002-.99999zm-.00561 0h.00561v-1.99999h-.00561z" mask="url(#b)"/><path d="m7.49754 7.56281c-.55228 0-1 .44771-1 1 0 .55228.44772 1 1 1zm.00562 2c.55228 0 1-.44772 1-1 0-.55229-.44772-1-1-1zm-.00562 0h.00562v-2h-.00562z" mask="url(#c)"/><path d="m7.49805 9.43781c-.55229 0-1 .44771-1 .99999 0 .5523.44771 1 1 1zm.00561 1.99999c.55229 0 1-.4477 1-1 0-.55228-.44771-.99999-1-.99999zm-.00561 0h.00561v-1.99999h-.00561z" mask="url(#d)"/><path d="m5.18407 7.56281c-.55229 0-1 .44771-1 1 0 .55228.44771 1 1 1zm.00561 2c.55229 0 1-.44772 1-1 0-.55229-.44771-1-1-1zm-.00561 0h.00561v-2h-.00561z" mask="url(#e)"/><path d="m5.18457 9.43781c-.55228 0-1 .44771-1 .99999 0 .5523.44772 1 1 1zm.00561 1.99999c.55229 0 1-.4477 1-1 0-.55228-.44771-.99999-1-.99999zm-.00561 0h.00561v-1.99999h-.00561z" mask="url(#f)"/></g></svg>

<svg xmlns="http://www.w3.org/2000/svg" width="15" height="15" viewBox="0 0 15 15" fill="none">
    <path d="M5 1.25V3.125" stroke="white" stroke-miterlimit="10" stroke-linecap="round" stroke-linejoin="round" />
    <path d="M9.99902 1.25V3.125" stroke="white" stroke-miterlimit="10" stroke-linecap="round"
        stroke-linejoin="round" />
    <path d="M2.1875 5.68115H12.8125" stroke="white" stroke-miterlimit="10" stroke-linecap="round"
        stroke-linejoin="round" />
    <path
        d="M12.626 5.3125V10.625C12.626 11.4859 12.4107 12.1268 12.0174 12.5504C11.6303 12.9672 10.9994 13.25 10.001 13.25H5.00098C4.00253 13.25 3.37163 12.9672 2.98456 12.5504C2.59126 12.1268 2.37598 11.4859 2.37598 10.625V5.3125C2.37598 4.45165 2.59126 3.81065 2.98456 3.3871C3.37163 2.97026 4.00253 2.6875 5.00098 2.6875H10.001C10.9994 2.6875 11.6303 2.97026 12.0174 3.3871C12.4107 3.81065 12.626 4.45165 12.626 5.3125Z"
        stroke="white" stroke-miterlimit="10" stroke-linecap="round" stroke-linejoin="round" />
    <mask id="path-5-inside-1_36773_143893" fill="white">
        <path fill-rule="evenodd" clip-rule="evenodd" d="M9.80907 8.56281H9.81468H9.80907Z" />
    </mask>
    <path
        d="M9.80907 7.56281C9.25678 7.56281 8.80907 8.01052 8.80907 8.56281C8.80907 9.11509 9.25678 9.56281 9.80907 9.56281V7.56281ZM9.81468 9.56281C10.367 9.56281 10.8147 9.11509 10.8147 8.56281C10.8147 8.01052 10.367 7.56281 9.81468 7.56281V9.56281ZM9.80907 9.56281H9.81468V7.56281H9.80907V9.56281Z"
        fill="white" mask="url(#path-5-inside-1_36773_143893)" />
    <mask id="path-7-inside-2_36773_143893" fill="white">
        <path fill-rule="evenodd" clip-rule="evenodd" d="M9.80907 10.4378H9.81468H9.80907Z" />
    </mask>
    <path
        d="M9.80907 9.43781C9.25678 9.43781 8.80907 9.88552 8.80907 10.4378C8.80907 10.9901 9.25678 11.4378 9.80907 11.4378V9.43781ZM9.81468 11.4378C10.367 11.4378 10.8147 10.9901 10.8147 10.4378C10.8147 9.88552 10.367 9.43781 9.81468 9.43781V11.4378ZM9.80907 11.4378H9.81468V9.43781H9.80907V11.4378Z"
        fill="white" mask="url(#path-7-inside-2_36773_143893)" />
    <mask id="path-9-inside-3_36773_143893" fill="white">
        <path fill-rule="evenodd" clip-rule="evenodd" d="M7.49754 8.56281H7.50316H7.49754Z" />
    </mask>
    <path
        d="M7.49754 7.56281C6.94526 7.56281 6.49754 8.01052 6.49754 8.56281C6.49754 9.11509 6.94526 9.56281 7.49754 9.56281V7.56281ZM7.50316 9.56281C8.05544 9.56281 8.50316 9.11509 8.50316 8.56281C8.50316 8.01052 8.05544 7.56281 7.50316 7.56281V9.56281ZM7.49754 9.56281H7.50316V7.56281H7.49754V9.56281Z"
        fill="white" mask="url(#path-9-inside-3_36773_143893)" />
    <mask id="path-11-inside-4_36773_143893" fill="white">
        <path fill-rule="evenodd" clip-rule="evenodd" d="M7.49805 10.4378H7.50366H7.49805Z" />
    </mask>
    <path
        d="M7.49805 9.43781C6.94576 9.43781 6.49805 9.88552 6.49805 10.4378C6.49805 10.9901 6.94576 11.4378 7.49805 11.4378V9.43781ZM7.50366 11.4378C8.05595 11.4378 8.50366 10.9901 8.50366 10.4378C8.50366 9.88552 8.05595 9.43781 7.50366 9.43781V11.4378ZM7.49805 11.4378H7.50366V9.43781H7.49805V11.4378Z"
        fill="white" mask="url(#path-11-inside-4_36773_143893)" />
    <mask id="path-13-inside-5_36773_143893" fill="white">
        <path fill-rule="evenodd" clip-rule="evenodd" d="M5.18407 8.56281H5.18968H5.18407Z" />
    </mask>
    <path
        d="M5.18407 7.56281C4.63178 7.56281 4.18407 8.01052 4.18407 8.56281C4.18407 9.11509 4.63178 9.56281 5.18407 9.56281V7.56281ZM5.18968 9.56281C5.74197 9.56281 6.18968 9.11509 6.18968 8.56281C6.18968 8.01052 5.74197 7.56281 5.18968 7.56281V9.56281ZM5.18407 9.56281H5.18968V7.56281H5.18407V9.56281Z"
        fill="white" mask="url(#path-13-inside-5_36773_143893)" />
    <mask id="path-15-inside-6_36773_143893" fill="white">
        <path fill-rule="evenodd" clip-rule="evenodd" d="M5.18457 10.4378H5.19018H5.18457Z" />
    </mask>
    <path
        d="M5.18457 9.43781C4.63229 9.43781 4.18457 9.88552 4.18457 10.4378C4.18457 10.9901 4.63229 11.4378 5.18457 11.4378V9.43781ZM5.19018 11.4378C5.74247 11.4378 6.19018 10.9901 6.19018 10.4378C6.19018 9.88552 5.74247 9.43781 5.19018 9.43781V11.4378ZM5.18457 11.4378H5.19018V9.43781H5.18457V11.4378Z"
        fill="white" mask="url(#path-15-inside-6_36773_143893)" />
</svg>
